src/lib/packages/icons/src/assets/filled/caret-right-square.svg

<svg width="24" height="24" viewBox="0 0 24 24" fill="none" xmlns="http://www.w3.org/2000/svg">
<path d="M17.625 3H6.375C4.125 3 3 4.125 3 6.375V17.625C3 19.875 4.125 21 6.375 21H17.625C19.875 21 21 19.875 21 17.625V6.375C21 4.125 19.875 3 17.625 3ZM14.7639 12.8679L11.302 15.7881C10.72 16.2791 9.83301 15.8621 9.83301 15.0991V8.90088C9.83301 8.13688 10.719 7.72091 11.302 8.21191L14.7639 11.1321C15.3009 11.5851 15.3009 12.4149 14.7639 12.8679Z" fill="currentColor"/>
</svg>

<svg xmlns="http://www.w3.org/2000/svg" width="24" height="24" fill="none"><path fill="currentColor" d="M17.625 3H6.375C4.125 3 3 4.125 3 6.375v11.25C3 19.875 4.125 21 6.375 21h11.25C19.875 21 21 19.875 21 17.625V6.375C21 4.125 19.875 3 17.625 3Zm-2.861 9.868-3.462 2.92c-.582.491-1.469.074-1.469-.689V8.901c0-.764.886-1.18 1.469-.69l3.462 2.921a1.137 1.137 0 0 1 0 1.736Z"/></svg>
